X: 227
T: No_82_Bird_Dance_Song_(e).krn
N: Derived from No_82_Bird_Dance_Song_(e).krn
%%abc-version 2.0
%%abcx-abcm2ps-target-version 5.9.1 (29 Sep 2008)
%%abc-creator hum2abc beta
%%abcx-conversion-date 2019/03/15 08:38:45
%%humdrum-veritas 2714530184
%%humdrum-veritas-data 3661650254
%%linebreak <none>
%%barnumbers 0
L: 1/8
M: 2/4
K: F clef=bass
[K:clef=bass][M:2/4]z2F,F, ]|:  
C4 ||  
[M:3/4]CC B,B, (A,F,/) z/ ||  
[M:2/4]C/C3/ (CB, | 
A,2)B,A, | 
F,F, F, z | 
(F,/C3/) A,/A,3/ ||  
[M:3/4]F,/A,3/ F,F,F,2 ||  
[M:2/4]A,/A,3/ F,/A,3/ | 
F,F,F,2 | 
F,/F,3/ C, z ||  
[M:3/4]F,F,F,2A,F, | 
A,4B,A, | 
F,F, F, z F,F, :|]  
F,F,F,2z2 |]  



